app/img/hands.svg

<svg width="92" height="92" viewBox="0 0 92 92" fill="none" xmlns="http://www.w3.org/2000/svg">
<rect width="92" height="92" rx="24" fill="white"/>
<path d="M56.0059 70H37.0059V76H56.0059V70Z" fill="black"/>
<path d="M56.0059 70H37.0059V76H56.0059V70Z" fill="url(#paint0_linear_22728_12633)"/>
<path d="M29.1728 16.4517L15.7378 29.8867L19.2733 33.4223L32.7084 19.9872L29.1728 16.4517Z" fill="black"/>
<path d="M29.1728 16.4517L15.7378 29.8867L19.2733 33.4223L32.7084 19.9872L29.1728 16.4517Z" fill="url(#paint1_linear_22728_12633)"/>
<path d="M63.1127 16.3199L59.5771 19.8555L73.0122 33.2905L76.5477 29.755L63.1127 16.3199Z" fill="black"/>
<path d="M63.1127 16.3199L59.5771 19.8555L73.0122 33.2905L76.5477 29.755L63.1127 16.3199Z" fill="url(#paint2_linear_22728_12633)"/>
<path d="M58.5564 23.7084L55.8651 23.5944C55.089 23.4848 54.2981 23.5571 53.5548 23.8056C52.8115 24.054 52.1361 24.4718 51.5819 25.026L46.0775 30.5305L40.3239 24.7769C39.8244 24.2888 39.2011 23.9463 38.5214 23.7861C37.8416 23.626 37.131 23.6543 36.4661 23.868C35.8388 24.0587 35.1715 24.0755 34.5355 23.9164C33.8995 23.7573 33.3186 23.4284 32.8551 22.9648L32.0012 22.1109L21.3945 32.7175L23.1225 34.4455L23.0085 37.1368C22.8989 37.9128 22.9712 38.7037 23.2197 39.447C23.4681 40.1903 23.8859 40.8657 24.4401 41.4199L34.0525 51.0324C34.181 49.7705 34.7856 48.6051 35.7432 47.7734L32.7482 44.7785L33.4553 44.0714L36.5836 47.1996C37.027 46.9472 37.5068 46.7649 38.0059 46.6591V42.9651L36.2838 41.243L36.9908 40.5358L38.0059 41.5509V36.201C37.9948 35.3168 38.3086 34.4592 38.8879 33.791C39.4672 33.1228 40.2716 32.6904 41.1485 32.576C41.4792 32.544 41.8128 32.559 42.1393 32.6208L40.9098 31.3914L41.6169 30.6843L43.4131 32.4804C43.7312 31.864 44.2233 31.3547 44.8283 31.0154C45.4333 30.6762 46.1246 30.5221 46.8165 30.5721C47.6513 30.6697 48.4258 31.0562 49.0057 31.6647C49.5855 32.2733 49.9342 33.0655 49.9913 33.9041C50.5596 33.634 51.1894 33.5194 51.8165 33.5721C52.7075 33.6788 53.5273 34.1126 54.1166 34.7895C54.7059 35.4663 55.0229 36.3379 55.0059 37.2352V40.6591C55.916 40.8491 56.7551 41.289 57.4292 41.9293C58.1032 42.5696 58.5855 43.3851 58.822 44.2842L61.6105 41.4957L62.3176 42.2029L59.0023 45.5181C59.0024 45.5319 59.0059 45.5447 59.0059 45.5585V48.8785C59.9043 48.7845 60.7437 48.3864 61.3848 47.7501L68.225 40.9099C68.7131 40.4104 69.0556 39.7871 69.2158 39.1073C69.3759 38.4276 69.3476 37.7169 69.1339 37.0521C68.9431 36.4248 68.9264 35.7575 69.0855 35.1215C69.2445 34.4854 69.5735 33.9046 70.0371 33.441L70.8909 32.5871L60.2844 21.9805L58.5564 23.7084Z" fill="black"/>
<path d="M58.5564 23.7084L55.8651 23.5944C55.089 23.4848 54.2981 23.5571 53.5548 23.8056C52.8115 24.054 52.1361 24.4718 51.5819 25.026L46.0775 30.5305L40.3239 24.7769C39.8244 24.2888 39.2011 23.9463 38.5214 23.7861C37.8416 23.626 37.131 23.6543 36.4661 23.868C35.8388 24.0587 35.1715 24.0755 34.5355 23.9164C33.8995 23.7573 33.3186 23.4284 32.8551 22.9648L32.0012 22.1109L21.3945 32.7175L23.1225 34.4455L23.0085 37.1368C22.8989 37.9128 22.9712 38.7037 23.2197 39.447C23.4681 40.1903 23.8859 40.8657 24.4401 41.4199L34.0525 51.0324C34.181 49.7705 34.7856 48.6051 35.7432 47.7734L32.7482 44.7785L33.4553 44.0714L36.5836 47.1996C37.027 46.9472 37.5068 46.7649 38.0059 46.6591V42.9651L36.2838 41.243L36.9908 40.5358L38.0059 41.5509V36.201C37.9948 35.3168 38.3086 34.4592 38.8879 33.791C39.4672 33.1228 40.2716 32.6904 41.1485 32.576C41.4792 32.544 41.8128 32.559 42.1393 32.6208L40.9098 31.3914L41.6169 30.6843L43.4131 32.4804C43.7312 31.864 44.2233 31.3547 44.8283 31.0154C45.4333 30.6762 46.1246 30.5221 46.8165 30.5721C47.6513 30.6697 48.4258 31.0562 49.0057 31.6647C49.5855 32.2733 49.9342 33.0655 49.9913 33.9041C50.5596 33.634 51.1894 33.5194 51.8165 33.5721C52.7075 33.6788 53.5273 34.1126 54.1166 34.7895C54.7059 35.4663 55.0229 36.3379 55.0059 37.2352V40.6591C55.916 40.8491 56.7551 41.289 57.4292 41.9293C58.1032 42.5696 58.5855 43.3851 58.822 44.2842L61.6105 41.4957L62.3176 42.2029L59.0023 45.5181C59.0024 45.5319 59.0059 45.5447 59.0059 45.5585V48.8785C59.9043 48.7845 60.7437 48.3864 61.3848 47.7501L68.225 40.9099C68.7131 40.4104 69.0556 39.7871 69.2158 39.1073C69.3759 38.4276 69.3476 37.7169 69.1339 37.0521C68.9431 36.4248 68.9264 35.7575 69.0855 35.1215C69.2445 34.4854 69.5735 33.9046 70.0371 33.441L70.8909 32.5871L60.2844 21.9805L58.5564 23.7084Z" fill="url(#paint3_linear_22728_12633)"/>
<path d="M43.8802 35.6901C43.8042 35.0405 43.4757 34.4468 42.9657 34.0373C42.4557 33.6278 41.8051 33.4353 41.1544 33.5015C40.5232 33.5886 39.946 33.9046 39.5326 34.3894C39.1192 34.8742 38.8984 35.4941 38.9121 36.1311V47.4885C37.8512 47.4885 36.8338 47.9099 36.0837 48.66C35.3335 49.4102 34.9121 50.4276 34.9121 51.4885V61.1619C34.9202 61.8603 35.1187 62.5432 35.4861 63.1371C35.8536 63.7311 36.376 64.2135 36.9973 64.5325C37.5757 64.8412 38.0594 65.3012 38.3967 65.8634C38.734 66.4256 38.9121 67.0689 38.9121 67.7245V68.9321H53.9121V66.4885L55.8958 64.6661C56.522 64.1948 57.0301 63.5844 57.38 62.8831C57.73 62.1818 57.9121 61.4088 57.9121 60.6251V45.4885C57.9121 44.4276 57.4907 43.4102 56.7405 42.66C55.9904 41.9099 54.973 41.4885 53.9121 41.4885V37.1659C53.9291 36.5187 53.706 35.888 53.2857 35.3955C52.8655 34.903 52.2778 34.5834 51.636 34.4983C51.006 34.4426 50.3785 34.6285 49.8804 35.0183C49.3824 35.408 49.0511 35.9725 48.9537 36.5974H49.4121V52.0407H48.4121V36.5974H48.9121V34.1659C48.9291 33.5187 48.706 32.888 48.2857 32.3955C47.8655 31.903 47.2778 31.5834 46.636 31.4983C46.2902 31.4673 45.9417 31.5086 45.6128 31.6196C45.2838 31.7306 44.9816 31.909 44.7254 32.1432C44.4691 32.3775 44.2645 32.6625 44.1245 32.9802C43.9845 33.2979 43.9121 33.6413 43.9121 33.9885V35.6901H44.4121V51.1335H43.4121V35.6901H43.8802ZM39.3113 56.0407H38.3113V48.0407H39.3113V56.0407ZM53.4121 41.799H54.4121V52.2423H53.4121V41.799Z" fill="black"/>
<path d="M43.8802 35.6901C43.8042 35.0405 43.4757 34.4468 42.9657 34.0373C42.4557 33.6278 41.8051 33.4353 41.1544 33.5015C40.5232 33.5886 39.946 33.9046 39.5326 34.3894C39.1192 34.8742 38.8984 35.4941 38.9121 36.1311V47.4885C37.8512 47.4885 36.8338 47.9099 36.0837 48.66C35.3335 49.4102 34.9121 50.4276 34.9121 51.4885V61.1619C34.9202 61.8603 35.1187 62.5432 35.4861 63.1371C35.8536 63.7311 36.376 64.2135 36.9973 64.5325C37.5757 64.8412 38.0594 65.3012 38.3967 65.8634C38.734 66.4256 38.9121 67.0689 38.9121 67.7245V68.9321H53.9121V66.4885L55.8958 64.6661C56.522 64.1948 57.0301 63.5844 57.38 62.8831C57.73 62.1818 57.9121 61.4088 57.9121 60.6251V45.4885C57.9121 44.4276 57.4907 43.4102 56.7405 42.66C55.9904 41.9099 54.973 41.4885 53.9121 41.4885V37.1659C53.9291 36.5187 53.706 35.888 53.2857 35.3955C52.8655 34.903 52.2778 34.5834 51.636 34.4983C51.006 34.4426 50.3785 34.6285 49.8804 35.0183C49.3824 35.408 49.0511 35.9725 48.9537 36.5974H49.4121V52.0407H48.4121V36.5974H48.9121V34.1659C48.9291 33.5187 48.706 32.888 48.2857 32.3955C47.8655 31.903 47.2778 31.5834 46.636 31.4983C46.2902 31.4673 45.9417 31.5086 45.6128 31.6196C45.2838 31.7306 44.9816 31.909 44.7254 32.1432C44.4691 32.3775 44.2645 32.6625 44.1245 32.9802C43.9845 33.2979 43.9121 33.6413 43.9121 33.9885V35.6901H44.4121V51.1335H43.4121V35.6901H43.8802ZM39.3113 56.0407H38.3113V48.0407H39.3113V56.0407ZM53.4121 41.799H54.4121V52.2423H53.4121V41.799Z" fill="url(#paint4_linear_22728_12633)"/>
<defs>
<linearGradient id="paint0_linear_22728_12633" x1="46.5059" y1="70" x2="46.5059" y2="76" gradientUnits="userSpaceOnUse">
<stop stop-color="#EF8080"/>
<stop offset="1" stop-color="#F0145A"/>
</linearGradient>
<linearGradient id="paint1_linear_22728_12633" x1="22.4553" y1="23.1692" x2="25.9909" y2="26.7047" gradientUnits="userSpaceOnUse">
<stop stop-color="#EF8080"/>
<stop offset="1" stop-color="#F0145A"/>
</linearGradient>
<linearGradient id="paint2_linear_22728_12633" x1="61.3449" y1="18.0877" x2="74.78" y2="31.5228" gradientUnits="userSpaceOnUse">
<stop stop-color="#EF8080"/>
<stop offset="1" stop-color="#F0145A"/>
</linearGradient>
<linearGradient id="paint3_linear_22728_12633" x1="46.1427" y1="21.9805" x2="46.1427" y2="51.0324" gradientUnits="userSpaceOnUse">
<stop stop-color="#EF8080"/>
<stop offset="1" stop-color="#F0145A"/>
</linearGradient>
<linearGradient id="paint4_linear_22728_12633" x1="46.4121" y1="31.4883" x2="46.4121" y2="68.9321" gradientUnits="userSpaceOnUse">
<stop stop-color="#EF8080"/>
<stop offset="1" stop-color="#F0145A"/>
</linearGradient>
</defs>
</svg>

<svg xmlns="http://www.w3.org/2000/svg" width="92" height="92" fill="none"><rect width="92" height="92" fill="#fff" rx="24"/><path fill="#000" d="M56.006 70h-19v6h19v-6Z"/><path fill="url(#a)" d="M56.006 70h-19v6h19v-6Z"/><path fill="#000" d="M29.173 16.452 15.738 29.887l3.535 3.535 13.435-13.435-3.535-3.535Z"/><path fill="url(#b)" d="M29.173 16.452 15.738 29.887l3.535 3.535 13.435-13.435-3.535-3.535Z"/><path fill="#000" d="m63.113 16.32-3.536 3.535 13.435 13.436 3.536-3.536L63.113 16.32Z"/><path fill="url(#c)" d="m63.113 16.32-3.536 3.535 13.435 13.436 3.536-3.536L63.113 16.32Z"/><path fill="#000" d="m58.556 23.708-2.69-.114a5.056 5.056 0 0 0-4.284 1.432l-5.505 5.505-5.753-5.754a3.84 3.84 0 0 0-3.858-.909 3.619 3.619 0 0 1-3.61-.903L32 22.11 21.395 32.718l1.727 1.727-.113 2.692a5.056 5.056 0 0 0 1.431 4.283l9.613 9.612a4.985 4.985 0 0 1 1.69-3.259l-2.995-2.995.707-.707 3.129 3.129a4.95 4.95 0 0 1 1.422-.54v-3.695l-1.722-1.722.707-.707 1.015 1.015V36.2a3.61 3.61 0 0 1 3.142-3.625 3.51 3.51 0 0 1 .991.045l-1.23-1.23.708-.707 1.796 1.796a3.542 3.542 0 0 1 3.404-1.908 3.602 3.602 0 0 1 3.174 3.332 3.558 3.558 0 0 1 1.825-.332 3.62 3.62 0 0 1 3.19 3.663v3.424a5.003 5.003 0 0 1 3.816 3.625l2.788-2.788.708.707-3.316 3.315c0 .014.004.027.004.04v3.32a3.962 3.962 0 0 0 2.379-1.128l6.84-6.84a3.84 3.84 0 0 0 .909-3.858 3.618 3.618 0 0 1 .903-3.611l.854-.854L60.284 21.98l-1.728 1.728Z"/><path fill="url(#d)" d="m58.556 23.708-2.69-.114a5.056 5.056 0 0 0-4.284 1.432l-5.505 5.505-5.753-5.754a3.84 3.84 0 0 0-3.858-.909 3.619 3.619 0 0 1-3.61-.903L32 22.11 21.395 32.718l1.727 1.727-.113 2.692a5.056 5.056 0 0 0 1.431 4.283l9.613 9.612a4.985 4.985 0 0 1 1.69-3.259l-2.995-2.995.707-.707 3.129 3.129a4.95 4.95 0 0 1 1.422-.54v-3.695l-1.722-1.722.707-.707 1.015 1.015V36.2a3.61 3.61 0 0 1 3.142-3.625 3.51 3.51 0 0 1 .991.045l-1.23-1.23.708-.707 1.796 1.796a3.542 3.542 0 0 1 3.404-1.908 3.602 3.602 0 0 1 3.174 3.332 3.558 3.558 0 0 1 1.825-.332 3.62 3.62 0 0 1 3.19 3.663v3.424a5.003 5.003 0 0 1 3.816 3.625l2.788-2.788.708.707-3.316 3.315c0 .014.004.027.004.04v3.32a3.962 3.962 0 0 0 2.379-1.128l6.84-6.84a3.84 3.84 0 0 0 .909-3.858 3.618 3.618 0 0 1 .903-3.611l.854-.854L60.284 21.98l-1.728 1.728Z"/><path fill="#000" d="M43.88 35.69a2.49 2.49 0 0 0-2.726-2.188 2.598 2.598 0 0 0-2.242 2.63v11.357a4 4 0 0 0-4 4v9.673a3.84 3.84 0 0 0 2.085 3.37 3.62 3.62 0 0 1 1.915 3.193v1.207h15v-2.444l1.984-1.822a5.058 5.058 0 0 0 2.016-4.04V45.488a4 4 0 0 0-4-4v-4.323a2.621 2.621 0 0 0-2.276-2.668 2.492 2.492 0 0 0-2.682 2.1h.458V52.04h-1V36.597h.5v-2.431a2.621 2.621 0 0 0-2.276-2.668 2.501 2.501 0 0 0-2.724 2.49v1.702h.5v15.444h-1V35.69h.468Zm-4.569 20.35h-1v-8h1v8ZM53.412 41.8h1v10.443h-1V41.8Z"/><path fill="url(#e)" d="M43.88 35.69a2.49 2.49 0 0 0-2.726-2.188 2.598 2.598 0 0 0-2.242 2.63v11.357a4 4 0 0 0-4 4v9.673a3.84 3.84 0 0 0 2.085 3.37 3.62 3.62 0 0 1 1.915 3.193v1.207h15v-2.444l1.984-1.822a5.058 5.058 0 0 0 2.016-4.04V45.488a4 4 0 0 0-4-4v-4.323a2.621 2.621 0 0 0-2.276-2.668 2.492 2.492 0 0 0-2.682 2.1h.458V52.04h-1V36.597h.5v-2.431a2.621 2.621 0 0 0-2.276-2.668 2.501 2.501 0 0 0-2.724 2.49v1.702h.5v15.444h-1V35.69h.468Zm-4.569 20.35h-1v-8h1v8ZM53.412 41.8h1v10.443h-1V41.8Z"/><defs><linearGradient id="a" x1="46.506" x2="46.506" y1="70" y2="76" gradientUnits="userSpaceOnUse"><stop stop-color="#EF8080"/><stop offset="1" stop-color="#F0145A"/></linearGradient><linearGradient id="b" x1="22.455" x2="25.991" y1="23.169" y2="26.705" gradientUnits="userSpaceOnUse"><stop stop-color="#EF8080"/><stop offset="1" stop-color="#F0145A"/></linearGradient><linearGradient id="c" x1="61.345" x2="74.78" y1="18.088" y2="31.523" gradientUnits="userSpaceOnUse"><stop stop-color="#EF8080"/><stop offset="1" stop-color="#F0145A"/></linearGradient><linearGradient id="d" x1="46.143" x2="46.143" y1="21.98" y2="51.032" gradientUnits="userSpaceOnUse"><stop stop-color="#EF8080"/><stop offset="1" stop-color="#F0145A"/></linearGradient><linearGradient id="e" x1="46.412" x2="46.412" y1="31.488" y2="68.932" gradientUnits="userSpaceOnUse"><stop stop-color="#EF8080"/><stop offset="1" stop-color="#F0145A"/></linearGradient></defs></svg>
